X: 17049
T: Heather Breeze, The
R: reel
M: 4/4
K: Gmajor
bgdg bagb|afdf agfa|bgdg bgag|fdcA BGGg|
bgdg bgdg|afdf agfa|bgaf (3gfe dB|cedc BGGg||

